images/LOGOS_CLIENTES/BCO PATAGONIA.svg

<svg width="130" height="14" viewBox="0 0 130 14" fill="none" xmlns="http://www.w3.org/2000/svg">
<path d="M1.81766 11.7677H3.2171C4.85299 11.7677 5.66523 10.8017 5.66523 9.62464C5.66523 7.5378 3.7832 7.3365 3.03338 7.3365H1.81766V11.7677ZM1.81766 5.88432H2.96481C3.79551 5.88432 5.071 5.66983 5.071 3.9935C5.071 2.2152 3.79551 2.14663 2.85493 2.14663H1.81766V5.88432ZM-0.00195312 0.690061H3.61706C4.83278 0.690061 6.88622 1.18144 6.88622 3.66913C6.88622 5.74016 5.52458 6.31857 4.93914 6.53833V6.57437C5.87092 6.71501 7.48485 7.37078 7.48485 9.78287C7.48485 12.856 5.0543 13.2173 3.4729 13.2173H-0.00195312V0.690061Z" fill="black"/>
<path d="M19.7266 0.690794H21.998L26.9373 10.4956H26.9699V0.690794H28.6031V13.2224H26.46L21.395 3.182H21.3589V13.2224H19.7266V0.690794Z" fill="black"/>
<path d="M37.8581 11.2923C37.3395 11.5912 36.5035 11.9701 35.4267 11.9701C32.8344 11.9701 32.0705 9.66348 32.0705 6.52267C32.0705 4.81645 32.3984 1.94374 34.7578 1.94374C35.7309 1.94374 36.2301 2.37886 36.4859 2.89135L37.8784 1.59739C37.1953 0.903831 36.1554 0.49332 34.8123 0.49332C31.166 0.49332 30.0742 3.48909 30.0742 6.81011C30.0742 11.7134 32.3061 13.4214 35.0698 13.4214C36.529 13.4214 37.8098 12.9177 38.3407 12.6812L37.8581 11.2923Z" fill="black"/>
<path d="M43.4245 11.9706C45.9298 11.9706 46.3315 9.00562 46.3315 6.95921C46.3315 4.90577 45.9298 1.94427 43.4245 1.94427C40.9245 1.94427 40.5421 4.90577 40.5421 6.95921C40.5421 9.00562 40.9245 11.9706 43.4245 11.9706ZM38.5449 6.95921C38.5449 3.56347 39.5804 0.492099 43.4245 0.492099C47.2738 0.492099 48.3348 3.56347 48.3348 6.95921C48.3348 10.3365 47.2738 13.4202 43.4245 13.4202C39.5804 13.4202 38.5449 10.3365 38.5449 6.95921Z" fill="black"/>
<path d="M18.7683 13.2222L14.4829 0.687032H12.2493L7.98242 13.2222H9.91104L13.3551 2.35809H13.3964L14.991 7.38621H13.4L12.9393 8.83575H15.4534L16.8449 13.2222H18.7683Z" fill="black"/>
<path d="M51.8827 5.93555H53.1775C54.4996 5.93555 55.4762 5.58569 55.4762 4.05879C55.4762 2.16534 54.1146 2.13809 53.1775 2.13809H51.8827V5.93555ZM50.0684 0.686788H53.0791C54.9339 0.686788 57.4708 0.731619 57.4708 4.01572C57.4708 7.09061 54.7704 7.38597 53.4966 7.38597H51.8827V13.2219H50.0684V0.686788Z" fill="black"/>
<path d="M69.0508 2.13775H65.9258V0.688206H73.9848V2.13775H70.8669V13.2207H69.0508V2.13775Z" fill="black"/>
<path d="M99.255 11.9702C101.762 11.9702 102.162 9.00518 102.162 6.95877C102.162 4.90357 101.762 1.94208 99.255 1.94208C96.755 1.94208 96.3761 4.90357 96.3761 6.95877C96.3761 9.00518 96.755 11.9702 99.255 11.9702ZM94.3789 6.95877C94.3789 3.556 95.4162 0.484628 99.255 0.484628C103.11 0.484628 104.164 3.556 104.164 6.95877C104.164 10.336 103.11 13.418 99.255 13.418C95.4162 13.418 94.3789 10.336 94.3789 6.95877Z" fill="black"/>
<path d="M105.631 0.687032H107.895L112.84 10.4954H112.874V0.687032H114.507V13.2222H112.368L107.303 3.17999H107.263V13.2222H105.631V0.687032Z" fill="black"/>
<path d="M116.438 0.687988H118.254V13.2223H116.438V0.687988Z" fill="black"/>
<path d="M88.4882 7.38633H91.1508V11.4747C91.0295 11.6611 90.1382 11.9705 89.0306 11.9705C86.1482 11.9705 85.8098 8.95366 85.8098 6.57409C85.8098 4.30265 86.3486 1.9433 88.708 1.9433C89.7224 1.9433 90.3289 2.36788 90.6375 2.96211L92.0114 1.67783C91.244 0.879659 90.045 0.483212 88.7256 0.483212C85.1681 0.483212 83.8047 3.12122 83.8047 6.57409C83.8047 11.4246 85.8546 13.4192 89.0877 13.4192C91.1508 13.4192 92.4457 12.5322 92.828 12.2422V5.93679H88.4882V7.38633Z" fill="black"/>
<path d="M67.0609 13.2222L62.7703 0.687032H60.5332L56.2637 13.2222H58.1914L61.6443 2.35809H61.6786L63.2767 7.38621H61.6821L61.2267 8.83575H63.732L65.1314 13.2222H67.0609Z" fill="black"/>
<path d="M129.998 13.2222L125.712 0.687032H123.479L119.211 13.2222H121.137L124.59 2.35809H124.621L126.215 7.38621H124.629L124.169 8.83575H126.679L128.072 13.2222H129.998Z" fill="black"/>
<path d="M83.6591 13.2222L79.3738 0.687032H77.1366L72.875 13.2222H74.7948L78.2477 2.35809H78.2785L79.8766 7.38621H78.2855L77.8266 8.83575H80.3389L81.7331 13.2222H83.6591Z" fill="black"/>
</svg>

<svg width="130" height="14" fill="none" xmlns="http://www.w3.org/2000/svg"><path d="M1.818 11.768h1.4c1.635 0 2.447-.966 2.447-2.143 0-2.087-1.882-2.288-2.632-2.288H1.818v4.43Zm0-5.884h1.147c.83 0 2.106-.214 2.106-1.89 0-1.779-1.275-1.847-2.216-1.847H1.818v3.737ZM-.002.69h3.62c1.215 0 3.268.491 3.268 2.98 0 2.07-1.361 2.649-1.947 2.868v.036c.932.141 2.546.797 2.546 3.209 0 3.073-2.43 3.434-4.012 3.434H-.002V.69ZM19.727.69h2.271l4.94 9.806h.032V.69h1.633v12.531H26.46l-5.065-10.04h-.036v10.04h-1.632V.691ZM37.858 11.292c-.518.3-1.354.678-2.431.678-2.593 0-3.356-2.307-3.356-5.447 0-1.707.327-4.58 2.687-4.58.973 0 1.472.436 1.728.948l1.392-1.294C37.195.904 36.155.493 34.812.493c-3.646 0-4.738 2.996-4.738 6.317 0 4.903 2.232 6.611 4.996 6.611 1.459 0 2.74-.503 3.27-.74l-.482-1.389ZM43.425 11.97c2.505 0 2.907-2.964 2.907-5.01 0-2.054-.402-5.016-2.907-5.016-2.5 0-2.883 2.962-2.883 5.015 0 2.047.383 5.012 2.883 5.012Zm-4.88-5.01c0-3.397 1.035-6.468 4.88-6.468 3.849 0 4.91 3.071 4.91 6.467 0 3.377-1.061 6.461-4.91 6.461-3.845 0-4.88-3.084-4.88-6.46ZM18.768 13.222 14.483.687h-2.234L7.982 13.222h1.929l3.444-10.864h.041l1.595 5.028H13.4l-.46 1.45h2.513l1.392 4.386h1.923ZM51.883 5.936h1.294c1.323 0 2.3-.35 2.3-1.877 0-1.894-1.362-1.92-2.3-1.92h-1.294v3.797ZM50.068.686h3.011c1.855 0 4.392.046 4.392 3.33 0 3.075-2.7 3.37-3.974 3.37h-1.614v5.836h-1.815V.687ZM69.05 2.138h-3.124V.688h8.059v1.45h-3.118V13.22H69.05V2.138ZM99.255 11.97c2.507 0 2.907-2.965 2.907-5.011 0-2.055-.4-5.017-2.907-5.017-2.5 0-2.879 2.962-2.879 5.017 0 2.046.379 5.011 2.879 5.011ZM94.379 6.96c0-3.403 1.037-6.474 4.876-6.474 3.855 0 4.909 3.071 4.909 6.474 0 3.377-1.054 6.459-4.909 6.459-3.839 0-4.876-3.082-4.876-6.46ZM105.631.687h2.264l4.945 9.808h.034V.687h1.633v12.535h-2.139L107.303 3.18h-.04v10.042h-1.632V.687ZM116.438.688h1.816v12.534h-1.816V.688ZM88.488 7.386h2.663v4.089c-.121.186-1.013.495-2.12.495-2.883 0-3.221-3.016-3.221-5.396 0-2.271.539-4.63 2.898-4.63 1.014 0 1.62.424 1.93 1.018l1.373-1.284C91.244.88 90.045.483 88.726.483c-3.558 0-4.921 2.638-4.921 6.091 0 4.85 2.05 6.845 5.283 6.845 2.063 0 3.358-.887 3.74-1.177V5.937h-4.34v1.45ZM67.06 13.222 62.77.687h-2.237l-4.27 12.535h1.928l3.453-10.864h.035l1.598 5.028h-1.595l-.455 1.45h2.505l1.4 4.386h1.929ZM129.998 13.222 125.712.687h-2.233l-4.268 12.535h1.926l3.453-10.864h.031l1.594 5.028h-1.586l-.46 1.45h2.51l1.393 4.386h1.926ZM83.66 13.222 79.373.687h-2.237l-4.262 12.535h1.92l3.453-10.864h.03l1.599 5.028h-1.591l-.46 1.45h2.513l1.394 4.386h1.926Z" fill="#000"/></svg>
